<?xml version="1.0" encoding="UTF-8"?>
<map version="1.10" tiledversion="1.11.2" orientation="orthogonal" renderorder="right-down" width="80" height="60" tilewidth="8" tileheight="8" infinite="0" nextlayerid="15" nextobjectid="31">
 <objectgroup id="2" name="global.state">
  <object id="21" name="state" x="32" y="0" width="48" height="48"/>
 </objectgroup>
 <objectgroup id="13" name="global.rating">
  <object id="29" name="rating" x="480" y="0" width="80" height="24"/>
 </objectgroup>
 <objectgroup id="14" name="global.popularity">
  <object id="30" name="popularity" x="480" y="24" width="80" height="24"/>
 </objectgroup>
 <objectgroup id="3" name="global.title">
  <object id="17" name="title" x="240" y="0" width="240" height="24"/>
 </objectgroup>
 <objectgroup id="4" name="global.time">
  <object id="19" name="time" x="560" y="0" width="80" height="24"/>
 </objectgroup>
 <objectgroup id="7" name="global.artist">
  <object id="13" name="artist" x="80" y="0" width="160" height="24"/>
 </objectgroup>
 <objectgroup id="8" name="global.album">
  <object id="14" name="album" x="80" y="24" width="160" height="24"/>
 </objectgroup>
 <objectgroup id="9" name="global.colour_one">
  <object id="23" name="colour_one" x="0" y="0" width="8" height="48"/>
 </objectgroup>
 <objectgroup id="10" name="global.colour_two">
  <object id="25" name="colour_two" x="8" y="0" width="8" height="48"/>
 </objectgroup>
 <objectgroup id="11" name="global.colour_three">
  <object id="26" name="colour_three" x="16" y="0" width="8" height="48"/>
 </objectgroup>
 <objectgroup id="12" name="global.colour_four">
  <object id="27" name="colour_four" x="24" y="0" width="8" height="48"/>
 </objectgroup>
 <objectgroup id="6" name="global.date">
  <object id="20" name="date" x="560" y="24" width="80" height="24"/>
 </objectgroup>
 <objectgroup id="5" name="global.progress">
  <object id="18" name="progress" x="240" y="24" width="240" height="24"/>
 </objectgroup>
</map>
