<?xml version="1.0" encoding="UTF-8"?>
<map version="1.10" tiledversion="1.11.2" orientation="orthogonal" renderorder="right-down" width="80" height="60" tilewidth="8" tileheight="8" infinite="0" nextlayerid="6" nextobjectid="5">
 <objectgroup id="2" name="info.identity">
  <object id="1" name="identity" x="0" y="48" width="400" height="232"/>
 </objectgroup>
 <objectgroup id="3" name="info.character">
  <object id="3" name="character" x="400" y="48" width="240" height="232"/>
 </objectgroup>
 <objectgroup id="4" name="info.provenance">
  <object id="2" name="provenance" x="0" y="280" width="400" height="200"/>
 </objectgroup>
 <objectgroup id="5" name="info.format">
  <object id="4" name="format" x="400" y="280" width="240" height="200"/>
 </objectgroup>
</map>
