<?xml version="1.0" encoding="UTF-8"?>
<map version="1.10" tiledversion="1.11.2" orientation="orthogonal" renderorder="right-down" width="80" height="60" tilewidth="8" tileheight="8" infinite="0" nextlayerid="6" nextobjectid="5">
 <objectgroup id="2" name="now.metadata">
  <object id="1" name="metadata" x="0" y="48" width="448" height="192"/>
 </objectgroup>
 <objectgroup id="3" name="now.art">
  <object id="2" name="art" x="448" y="48" width="192" height="192"/>
 </objectgroup>
 <objectgroup id="4" name="now.lyrics">
  <object id="3" name="lyrics" x="0" y="240" width="640" height="144"/>
 </objectgroup>
 <objectgroup id="5" name="now.logging">
  <object id="4" name="logging" x="0" y="384" width="640" height="96"/>
 </objectgroup>
</map>
